build/svg/cmd/lc_exportdirecttopdf.svg

<?xml version="1.0" encoding="UTF-8" standalone="no"?>
<svg
   xmlns:osb="http://www.openswatchbook.org/uri/2009/osb"
   xmlns:dc="http://purl.org/dc/elements/1.1/"
   xmlns:cc="http://creativecommons.org/ns#"
   xmlns:rdf="http://www.w3.org/1999/02/22-rdf-syntax-ns#"
   xmlns:svg="http://www.w3.org/2000/svg"
   xmlns="http://www.w3.org/2000/svg"
   xmlns:xlink="http://www.w3.org/1999/xlink"
   xmlns:sodipodi="http://sodipodi.sourceforge.net/DTD/sodipodi-0.dtd"
   xmlns:inkscape="http://www.inkscape.org/namespaces/inkscape"
   height="24"
   id="svg7384"
   version="1.1"
   width="24"
   sodipodi:docname="lc_exportdirecttopdf.svg"
   inkscape:version="0.92.4 (5da689c313, 2019-01-14)"
   inkscape:export-filename="/home/jupiter007/Libreoffice yaru theme fullcolor/build/cmd/lc_exportdirecttopdf.png"
   inkscape:export-xdpi="95"
   inkscape:export-ydpi="95">
  <sodipodi:namedview
     pagecolor="#ffffff"
     bordercolor="#666666"
     borderopacity="1"
     objecttolerance="10"
     gridtolerance="10"
     guidetolerance="10"
     inkscape:pageopacity="0"
     inkscape:pageshadow="2"
     inkscape:window-width="1920"
     inkscape:window-height="1011"
     id="namedview22"
     showgrid="true"
     inkscape:snap-page="true"
     inkscape:snap-grids="true"
     inkscape:zoom="20.85965"
     inkscape:cx="4.5907647"
     inkscape:cy="9.422836"
     inkscape:window-x="1920"
     inkscape:window-y="32"
     inkscape:window-maximized="1"
     inkscape:current-layer="svg7384"
     inkscape:snap-global="true">
    <inkscape:grid
       type="xygrid"
       id="grid831" />
  </sodipodi:namedview>
  <metadata
     id="metadata20854">
    <rdf:RDF>
      <cc:Work
         rdf:about="">
        <dc:title />
        <dc:format>image/svg+xml</dc:format>
        <dc:type
           rdf:resource="http://purl.org/dc/dcmitype/StillImage" />
      </cc:Work>
    </rdf:RDF>
  </metadata>
  <defs
     id="defs7386">
    <linearGradient
       id="linearGradient5606"
       osb:paint="solid">
      <stop
         id="stop5608"
         offset="0"
         style="stop-color:#000000;stop-opacity:1;" />
    </linearGradient>
    <linearGradient
       id="linearGradient4526"
       osb:paint="solid">
      <stop
         id="stop4528"
         offset="0"
         style="stop-color:#ffffff;stop-opacity:1;" />
    </linearGradient>
    <linearGradient
       id="linearGradient3600-4"
       osb:paint="gradient">
      <stop
         id="stop3602-7"
         offset="0"
         style="stop-color:#f4f4f4;stop-opacity:1" />
      <stop
         id="stop3604-6"
         offset="1"
         style="stop-color:#dbdbdb;stop-opacity:1" />
    </linearGradient>
    <linearGradient
       inkscape:collect="always"
       xlink:href="#linearGradient927"
       id="linearGradient993"
       x1="328"
       y1="237"
       x2="328"
       y2="251"
       gradientUnits="userSpaceOnUse" />
    <linearGradient
       inkscape:collect="always"
       id="linearGradient927">
      <stop
         style="stop-color:#ffffff;stop-opacity:1;"
         offset="0"
         id="stop923" />
      <stop
         id="stop933"
         offset="0.125"
         style="stop-color:#ffffff;stop-opacity:0.09803922" />
      <stop
         id="stop931"
         offset="0.92500001"
         style="stop-color:#ffffff;stop-opacity:0.09803922" />
      <stop
         style="stop-color:#ffffff;stop-opacity:0.49803922"
         offset="1"
         id="stop925" />
    </linearGradient>
    <clipPath
       clipPathUnits="userSpaceOnUse"
       id="clipPath983">
      <path
         sodipodi:nodetypes="scccssscsss"
         inkscape:connector-curvature="0"
         id="path985"
         d="m 325.09646,237 c -2.80769,0 -3.10979,0.28839 -3.09603,3.10176 V 244 v 3.89824 c -0.0138,2.81337 0.28834,3.10176 3.09603,3.10176 h 5.8075 C 333.71166,251 334,250.71165 334,247.89824 V 244 240.10176 C 334,237.28836 333.71165,237 330.90396,237 Z"
         style="color:#000000;display:inline;overflow:visible;visibility:visible;opacity:1;fill:#46a926;fill-opacity:1;fill-rule:nonzero;stroke:none;stroke-width:2;stroke-miterlimit:4;stroke-dasharray:none;stroke-opacity:1;marker:none;enable-background:accumulate" />
    </clipPath>
    <clipPath
       clipPathUnits="userSpaceOnUse"
       id="clipPath959">
      <path
         style="color:#000000;display:inline;overflow:visible;visibility:visible;opacity:1;fill:#46a926;fill-opacity:1;fill-rule:nonzero;stroke:none;stroke-width:2;stroke-miterlimit:4;stroke-dasharray:none;stroke-opacity:1;marker:none;enable-background:accumulate"
         d="m 330.1929,133.99999 c -5.61538,0 -6.21958,0.57678 -6.19206,6.20352 v 7.79648 7.79648 c -0.0276,5.62673 0.57668,6.20351 6.19206,6.20351 h 11.615 c 5.6154,0 6.19208,-0.5767 6.19208,-6.20351 v -7.79648 -7.79648 c 0,-5.6268 -0.5767,-6.20352 -6.19208,-6.20352 z"
         id="path961"
         inkscape:connector-curvature="0"
         sodipodi:nodetypes="scccssscsss" />
    </clipPath>
    <clipPath
       clipPathUnits="userSpaceOnUse"
       id="clipPath971">
      <path
         style="color:#000000;display:inline;overflow:visible;visibility:visible;opacity:1;fill:#46a926;fill-opacity:1;fill-rule:nonzero;stroke:none;stroke-width:2;stroke-miterlimit:4;stroke-dasharray:none;stroke-opacity:1;marker:none;enable-background:accumulate"
         d="m 327.8652,189 c -4.41209,0 -4.88682,0.45318 -4.8652,4.87419 V 200 206.12581 C 322.9783,210.54682 323.45311,211 327.8652,211 h 8.2696 C 340.54689,211 341,210.54688 341,206.12581 V 200 193.87419 C 341,189.45313 340.54688,189 336.13479,189 Z"
         id="path973"
         inkscape:connector-curvature="0"
         sodipodi:nodetypes="scccssscsss" />
    </clipPath>
    <clipPath
       clipPathUnits="userSpaceOnUse"
       id="clipPath983-5">
      <path
         sodipodi:nodetypes="scccssscsss"
         inkscape:connector-curvature="0"
         id="path985-0"
         d="m 325.09646,237 c -2.80769,0 -3.10979,0.28839 -3.09603,3.10176 V 244 v 3.89824 c -0.0138,2.81337 0.28834,3.10176 3.09603,3.10176 h 5.8075 C 333.71166,251 334,250.71165 334,247.89824 V 244 240.10176 C 334,237.28836 333.71165,237 330.90396,237 Z"
         style="color:#000000;display:inline;overflow:visible;visibility:visible;opacity:1;fill:#46a926;fill-opacity:1;fill-rule:nonzero;stroke:none;stroke-width:2;stroke-miterlimit:4;stroke-dasharray:none;stroke-opacity:1;marker:none;enable-background:accumulate" />
    </clipPath>
    <clipPath
       clipPathUnits="userSpaceOnUse"
       id="clipPath971-5">
      <path
         style="color:#000000;display:inline;overflow:visible;visibility:visible;opacity:1;fill:#46a926;fill-opacity:1;fill-rule:nonzero;stroke:none;stroke-width:2;stroke-miterlimit:4;stroke-dasharray:none;stroke-opacity:1;marker:none;enable-background:accumulate"
         d="m 327.8652,189 c -4.41209,0 -4.88682,0.45318 -4.8652,4.87419 V 200 206.12581 C 322.9783,210.54682 323.45311,211 327.8652,211 h 8.2696 C 340.54689,211 341,210.54688 341,206.12581 V 200 193.87419 C 341,189.45313 340.54688,189 336.13479,189 Z"
         id="path973-2"
         inkscape:connector-curvature="0"
         sodipodi:nodetypes="scccssscsss" />
    </clipPath>
    <linearGradient
       inkscape:collect="always"
       xlink:href="#linearGradient4246"
       id="linearGradient916"
       gradientUnits="userSpaceOnUse"
       gradientTransform="matrix(0,-0.05664062,-0.05663901,0,29.74456,26)"
       x1="423.72418"
       y1="419.22626"
       x2="70.620697"
       y2="207.35814" />
    <linearGradient
       inkscape:collect="always"
       id="linearGradient4246">
      <stop
         style="stop-color:#da1636;stop-opacity:1"
         offset="0"
         id="stop4248" />
      <stop
         style="stop-color:#f22c42;stop-opacity:1"
         offset="1"
         id="stop4250" />
    </linearGradient>
  </defs>
  <path
     style="color:#000000;display:inline;overflow:visible;visibility:visible;fill:url(#linearGradient916);fill-opacity:1;fill-rule:nonzero;stroke:none;stroke-width:1;marker:none;enable-background:accumulate"
     d="m 14.13403,2.5 c 1.11158,0 1.98683,0.0256 2.70703,0.14648 0.72019,0.1209 1.3105,0.34863 1.74218,0.7793 0.43169,0.43067 0.65954,1.01974 0.7793,1.74024 0.11977,0.72049 0.14217,1.59669 0.13672,2.71093 V 12 16.125 c 0.005,1.1131 -0.017,1.989 -0.13672,2.70898 -0.11976,0.72051 -0.3476,1.30957 -0.7793,1.74024 -0.43169,0.43067 -1.02199,0.6584 -1.74218,0.7793 C 16.12086,21.47441 15.24561,21.5 14.13403,21.5 H 9.86449 C 8.75291,21.5 7.87812,21.4745 7.15942,21.35352 6.44072,21.23257 5.85319,21.00504 5.42309,20.57422 4.99299,20.14339 4.76649,19.55573 4.64574,18.83594 4.525,18.11615 4.49926,17.23881 4.49926,16.125 V 12 7.875 c 0,-1.11381 0.0257,-1.99115 0.14648,-2.71094 C 4.76649,4.44427 4.99299,3.85661 5.42309,3.42578 5.85319,2.99496 6.44072,2.76743 7.15942,2.64648 7.87812,2.52554 8.75291,2.5 9.86449,2.5 Z"
     id="path914"
     inkscape:connector-curvature="0"
     sodipodi:nodetypes="scccccccccsscccscscccss" />
  <rect
     inkscape:label="48x48"
     y="0"
     x="0"
     height="24"
     width="24"
     id="rect1034"
     style="display:inline;overflow:visible;visibility:visible;fill:none;fill-opacity:1;fill-rule:nonzero;stroke:none;stroke-width:2;marker:none;enable-background:accumulate" />
  <path
     style="fill:#ffffff;stroke-width:0.32651353"
     inkscape:connector-curvature="0"
     id="path1036"
     d="m 10.199336,12.836289 c 0.311419,-0.610396 0.665341,-1.298117 0.948619,-1.988566 v 0 l 0.112008,-0.27256 C 10.889951,9.1671528 10.668078,8.0369373 10.866292,7.3061278 v 0 c 0.05336,-0.1905311 0.274036,-0.3061301 0.509967,-0.3061301 v 0 l 0.143767,0.00212 h 0.02639 c 0.322998,-0.00496 0.475089,0.4059188 0.492346,0.5656644 v 0 c 0.0285,0.2660472 -0.09458,0.7163074 -0.09458,0.7163074 v 0 c 0,-0.1818188 0.0071,-0.475618 -0.107638,-0.7291393 v 0 C 11.702959,7.2615918 11.575362,7.0863422 11.46096,7.0585628 v 0 c -0.05776,0.038579 -0.1139,0.118466 -0.133135,0.2721435 v 0 c -0.03983,0.2154712 -0.05178,0.4874475 -0.05178,0.627653 v 0 c 0,0.495353 0.09753,1.1491705 0.289207,1.8231695 v 0 c 0.03616,-0.104354 0.06797,-0.204616 0.09328,-0.298559 v 0 C 11.697832,9.3349148 11.94771,8.353478 11.94771,8.353478 v 0 c 0,0 -0.06297,1.3064388 -0.150921,1.701725 v 0 c -0.01884,0.08353 -0.03963,0.166148 -0.06129,0.250711 v 0 c 0.316067,0.883124 0.825366,1.671328 1.432922,2.238608 v 0 c 0.239549,0.223877 0.542089,0.404388 0.828428,0.56892 v 0 c 0.625315,-0.08935 1.201056,-0.131548 1.681377,-0.126231 v 0 c 0.637257,0.0084 1.105024,0.102655 1.294443,0.289234 v 0 c 0.09275,0.09069 0.13038,0.200217 0.14207,0.322997 v 0 c 0.0027,0.04777 -0.02048,0.159997 -0.02731,0.188166 v 0 c 0.0068,-0.0341 0.0068,-0.201776 -0.504734,-0.365056 v 0 c -0.402885,-0.128794 -1.156909,-0.124786 -2.061687,-0.02847 v 0 c 1.046515,0.511998 2.066058,0.766383 2.389167,0.613874 v 0 c 0.07899,-0.0385 0.174805,-0.169766 0.174805,-0.169766 v 0 c 0,0 -0.05695,0.258756 -0.09784,0.323444 v 0 c -0.05219,0.07028 -0.154568,0.146412 -0.251629,0.172076 v 0 c -0.510272,0.136141 -1.838534,-0.178896 -2.996473,-0.840536 v 0 c -1.293718,0.190532 -2.714504,0.542506 -3.8533763,0.916052 v 0 C 8.766497,16.37057 7.9250983,17.271368 7.2406061,16.92869 v 0 L 6.9889496,16.802146 c -0.1022939,-0.05851 -0.1179093,-0.200941 -0.09425,-0.31693 v 0 c 0.079803,-0.390442 0.5693943,-0.978514 1.5528349,-1.56575 v 0 c 0.105857,-0.06405 0.5773835,-0.313368 0.5773835,-0.313368 v 0 c 0,0 -0.3490796,0.337863 -0.4308593,0.404166 v 0 c -0.7849492,0.64324 -1.3642805,1.452489 -1.3498341,1.766218 v 0 l 0.00284,0.02736 c 0.6667892,-0.09503 1.6667364,-1.45221 2.9522714,-3.967554 m 0.407394,0.208596 c -0.214719,0.404388 -0.424596,0.779326 -0.6183564,1.12359 v 0 C 11.060194,13.719409 12.21379,13.432039 13.311912,13.227897 v 0 C 13.16433,13.125993 13.021063,13.018076 12.886258,12.904008 v 0 C 12.28154,12.392038 11.820509,11.753307 11.48632,11.081173 v 0 c -0.211935,0.57098 -0.463955,1.177729 -0.879588,1.963709" />
  <path
     style="color:#000000;display:inline;overflow:visible;visibility:visible;opacity:0.07999998;fill:#ffffff;fill-opacity:1;fill-rule:nonzero;stroke:none;stroke-width:1;marker:none;enable-background:accumulate"
     d="m 5,12 v 4.125 C 4.9783,20.54601 5.45314,21 9.86523,21 h 4.26954 C 18.54686,21 19,20.54607 19,16.125 V 12 Z"
     id="path1007"
     inkscape:connector-curvature="0"
     sodipodi:nodetypes="ccssscc" />
  <path
     style="color:#000000;display:inline;overflow:visible;visibility:visible;opacity:0.07999998;fill:#ffffff;fill-opacity:1;fill-rule:nonzero;stroke:none;stroke-width:1;marker:none;enable-background:accumulate"
     d="m 12,3 v 18 h 2.13477 C 18.54686,21 19,20.54607 19,16.125 V 12 7.875 C 19,3.45394 18.54686,3 14.13477,3 Z"
     id="path1014"
     inkscape:connector-curvature="0"
     sodipodi:nodetypes="ccsscssc" />
  <path
     id="path1085"
     d="M 9.86523,2.5 C 8.75365,2.5 7.8784,2.5256 7.1582,2.64648 6.43801,2.76738 5.8477,2.99511 5.41602,3.42578 4.98433,3.85645 4.75648,4.44552 4.63672,5.16602 4.51695,5.88651 4.49455,6.76271 4.5,7.87695 V 12 16.125 c -0.005,1.1131 0.017,1.989 0.13672,2.70898 0.11976,0.72051 0.3476,1.30957 0.7793,1.74024 0.43169,0.43067 1.02199,0.6584 1.74218,0.7793 C 7.8784,21.47441 8.75365,21.5 9.86523,21.5 h 4.26954 c 1.11158,0 1.98637,-0.0255 2.70507,-0.14648 0.7187,-0.12095 1.30623,-0.34848 1.73633,-0.7793 0.4301,-0.43083 0.6566,-1.01849 0.77735,-1.73828 C 19.47426,18.11615 19.5,17.23881 19.5,16.125 V 12 7.875 C 19.5,6.76119 19.4743,5.88385 19.35352,5.16406 19.23277,4.44427 19.00627,3.85661 18.57617,3.42578 18.14607,2.99496 17.55854,2.76743 16.83984,2.64648 16.12114,2.52554 15.24635,2.5 14.13477,2.5 Z"
     style="color:#000000;display:inline;overflow:visible;visibility:visible;opacity:0.4;fill:none;fill-opacity:1;fill-rule:nonzero;stroke:#000000;stroke-width:1;stroke-opacity:1;marker:none;enable-background:accumulate"
     inkscape:connector-curvature="0"
     sodipodi:nodetypes="scccccccccsscccscscccss" />
</svg>

<svg xmlns="http://www.w3.org/2000/svg" xmlns:xlink="http://www.w3.org/1999/xlink" height="24" width="24"><defs><linearGradient id="a"><stop offset="0" stop-color="#fff"/><stop offset=".125" stop-color="#fff" stop-opacity=".098"/><stop offset=".925" stop-color="#fff" stop-opacity=".098"/><stop offset="1" stop-color="#fff" stop-opacity=".498"/></linearGradient><linearGradient xlink:href="#b" id="c" gradientUnits="userSpaceOnUse" gradientTransform="matrix(0 -.05664 -.05664 0 29.745 26)" x1="423.724" y1="419.226" x2="70.621" y2="207.358"/><linearGradient id="b"><stop offset="0" stop-color="#da1636"/><stop offset="1" stop-color="#f22c42"/></linearGradient></defs><path style="marker:none" d="M14.134 2.5c1.112 0 1.987.026 2.707.146.72.121 1.31.35 1.742.78.432.43.66 1.02.78 1.74s.142 1.597.136 2.71V16.126c.005 1.113-.017 1.989-.136 2.709-.12.72-.348 1.31-.78 1.74-.431.43-1.022.659-1.742.78-.72.12-1.595.146-2.707.146h-4.27c-1.111 0-1.986-.026-2.705-.146-.718-.121-1.306-.349-1.736-.78-.43-.43-.657-1.018-.777-1.738-.121-.72-.147-1.597-.147-2.711v-8.25c0-1.114.026-1.991.147-2.71.12-.72.347-1.308.777-1.74.43-.43 1.018-.658 1.736-.779.72-.12 1.594-.146 2.705-.146z" color="#000" overflow="visible" fill="url(#c)"/><path style="marker:none" overflow="visible" fill="none" d="M0 0h24v24H0z"/><path d="M10.2 12.836c.31-.61.665-1.298.948-1.988l.112-.273c-.37-1.408-.592-2.538-.394-3.269.054-.19.274-.306.51-.306l.144.002h.026c.323-.005.476.406.493.566.028.266-.095.716-.095.716 0-.182.007-.476-.107-.729-.134-.293-.262-.469-.376-.496-.058.038-.114.118-.133.272-.04.215-.052.487-.052.627 0 .496.098 1.15.29 1.824.035-.105.067-.205.093-.299.039-.148.289-1.13.289-1.13s-.063 1.307-.151 1.702c-.02.084-.04.166-.062.25.317.884.826 1.672 1.433 2.24.24.223.543.404.829.568.625-.089 1.2-.131 1.681-.126.637.009 1.105.103 1.295.29.092.09.13.2.142.322a.981.981 0 01-.028.189c.007-.034.007-.202-.504-.365-.403-.13-1.157-.125-2.062-.029 1.047.512 2.066.766 2.39.614a.68.68 0 00.174-.17s-.057.259-.098.324a.51.51 0 01-.251.172c-.51.136-1.839-.18-2.997-.84a24.48 24.48 0 00-3.853.915c-1.12 1.962-1.96 2.862-2.645 2.52l-.252-.127c-.102-.058-.118-.2-.094-.317.08-.39.57-.978 1.553-1.566.105-.064.577-.313.577-.313s-.35.338-.43.404c-.786.644-1.365 1.453-1.35 1.766l.002.028c.667-.095 1.667-1.452 2.952-3.968m.408.209c-.215.404-.425.78-.619 1.123 1.072-.449 2.226-.736 3.324-.94a5.478 5.478 0 01-.426-.324 5.7 5.7 0 01-1.4-1.823 15.615 15.615 0 01-.88 1.964" fill="#fff"/><path style="marker:none" d="M5 12v4.125C4.978 20.546 5.453 21 9.865 21h4.27C18.547 21 19 20.546 19 16.125V12z" color="#000" overflow="visible" opacity=".08" fill="#fff"/><path style="marker:none" d="M12 3v18h2.135C18.547 21 19 20.546 19 16.125v-8.25C19 3.454 18.547 3 14.135 3z" color="#000" overflow="visible" opacity=".08" fill="#fff"/><path d="M9.865 2.5c-1.111 0-1.987.026-2.707.146-.72.121-1.31.35-1.742.78-.432.43-.66 1.02-.78 1.74s-.141 1.597-.136 2.71V16.126c-.005 1.113.017 1.989.137 2.709.12.72.347 1.31.779 1.74.432.43 1.022.659 1.742.78.72.12 1.596.146 2.707.146h4.27c1.111 0 1.986-.025 2.705-.146.719-.121 1.306-.349 1.736-.78.43-.43.657-1.018.778-1.738.12-.72.146-1.597.146-2.711v-8.25c0-1.114-.026-1.991-.146-2.71-.121-.72-.348-1.308-.778-1.74-.43-.43-1.017-.658-1.736-.779-.719-.12-1.594-.146-2.705-.146z" style="marker:none" color="#000" overflow="visible" opacity=".4" fill="none" stroke="#000"/></svg>
